**kern	**kern	**dynam
*part1	*part1	*part1
*staff2	*staff1	*
*I"Piano	*	*
*clefF4	*clefG2	*
*k[b-e-a-]	*k[b-e-a-]	*
=1	=1	=1
4.DD 4.D	4.B- 4.f 4.b-	.
8FF 8F	8B- 8d 8a-	.
4EE- 4E-	4B- 4e- 4g	.
=	=	=
4EE- 4E-	4e- 4g 4ee-	.
4.GG 4.G	4.e- 4.g 4.b-	.
8BB- 8B-	8e- 8g	.
=	=	=
4.DD 4.D	4.B- 4.f 4.b-	.
8FF 8F	8B- 8d 8a-	.
4EE- 4E-	4B- 4e- 4g	.
=	=	=
4AA- 4A-	4c 4e- 4f	<
4GG 4G	4B- 4e- 4g	.
4FF 4F	4c 4e- 4a-	.
=	=	=
4GG 4G	4B- 4e- 4b-	.
2AA- 2A-	2c 2e- 2cc	.
=	=	=
4GG 4G	4B- 4e- 4b-	[ ff
4BB- 4B-	4e- 4g 4b-	.
4BBB- 4BB-	4B- 4d 4a-	.
=	=	=
2EE- 2E-	2B- 2e- 2g	.
4r;	4r;	.
=	=	=
*-	*-	*-
!!!system-decoration: {(s1,s2)}
